imgs/chat.svg

<svg width="108" height="102" viewBox="0 0 108 102" fill="none" xmlns="http://www.w3.org/2000/svg">
<path d="M100.036 46.4351C95.3011 65.6173 74.1192 80.1293 48.774 80.1293C44.7046 80.1252 40.6447 79.7368 36.6484 78.9692L36.4062 79.0842C43.1319 88.2067 55.8044 94.0648 69.6772 94.0648C73.6107 94.065 77.5297 93.5877 81.3482 92.6434L94.9179 100.785C95.1868 100.945 95.4934 101.03 95.8062 101.033C96.2682 101.033 96.7113 100.849 97.038 100.522C97.3647 100.196 97.5482 99.7526 97.5482 99.2906V84.7785C104.296 79.2583 108 72.0729 108 64.4519C107.942 61.0693 107.207 57.7325 105.839 54.6382C104.472 51.5439 102.498 48.7548 100.036 46.4351Z" fill="#65E0BD"/>
<path fill-rule="evenodd" clip-rule="evenodd" d="M10.9618 86.5866C11.2885 86.9133 11.7316 87.0968 12.1935 87.0968C12.4631 87.0997 12.7296 87.0401 12.9722 86.9226L36.1608 75.3178C40.3081 76.1954 44.5351 76.6402 48.7742 76.6452C75.6679 76.6452 97.5484 59.454 97.5484 38.3226C97.5484 17.1912 75.6679 0 48.7742 0C21.8805 0 0 17.1912 0 38.3226C0.0878614 42.7665 1.05693 47.1488 2.85103 51.2154C4.64513 55.2821 7.22858 58.9521 10.4516 62.0129V85.3548C10.4516 85.8168 10.6351 86.2599 10.9618 86.5866ZM40 39.5161C40 41.7253 38.2091 43.5161 36 43.5161C33.7909 43.5161 32 41.7253 32 39.5161C32 37.307 33.7909 35.5161 36 35.5161C38.2091 35.5161 40 37.307 40 39.5161ZM52 39.5161C52 41.7253 50.2091 43.5161 48 43.5161C45.7909 43.5161 44 41.7253 44 39.5161C44 37.307 45.7909 35.5161 48 35.5161C50.2091 35.5161 52 37.307 52 39.5161ZM60 43.5161C62.2091 43.5161 64 41.7253 64 39.5161C64 37.307 62.2091 35.5161 60 35.5161C57.7909 35.5161 56 37.307 56 39.5161C56 41.7253 57.7909 43.5161 60 43.5161Z" fill="#08AE7E"/>
</svg>

<svg width="108" height="102" fill="none" xmlns="http://www.w3.org/2000/svg"><path d="M100.036 46.435C95.301 65.617 74.119 80.13 48.774 80.13a64.628 64.628 0 01-12.126-1.16l-.242.115c6.726 9.123 19.398 14.98 33.271 14.98a48.573 48.573 0 0011.671-1.42l13.57 8.141c.269.16.575.245.888.248a1.742 1.742 0 001.742-1.742V84.778C104.296 79.258 108 72.073 108 64.452a25.345 25.345 0 00-7.964-18.017z" fill="#65E0BD"/><path fill-rule="evenodd" clip-rule="evenodd" d="M10.962 86.587c.327.326.77.51 1.232.51.27.003.536-.057.778-.174l23.189-11.605a61.276 61.276 0 0012.613 1.327c26.894 0 48.774-17.191 48.774-38.322C97.548 17.19 75.668 0 48.774 0 21.881 0 0 17.191 0 38.323a33.586 33.586 0 0010.452 23.69v23.342c0 .462.183.905.51 1.232zM40 39.517a4 4 0 11-8 0 4 4 0 018 0zm12 0a4 4 0 11-8 0 4 4 0 018 0zm8 4a4 4 0 100-8 4 4 0 000 8z" fill="#08AE7E"/></svg>
